bowl-mix-outline.svg

<svg fill="currentColor" viewBox="0 0 24 24"><path d="M15.6 12H2v3c0 3.9 3.1 7 7 7h6c3.9 0 7-3.1 7-7v-3zm4.4 3c0 2.8-2.2 5-5 5H9c-2.8 0-5-2.2-5-5v-1h16zm-3.8-4 4.1-6.6L22 5.5 18.6 11z"/></svg>

<svg  viewBox="0 0 24 24" fill="currentColor"><path  d="M15.6 12H2V15C2 18.9 5.1 22 9 22H15C18.9 22 22 18.9 22 15V12H15.6M20 15C20 17.8 17.8 20 15 20H9C6.2 20 4 17.8 4 15V14H20V15M16.2 11L20.3 4.4L22 5.5L18.6 11H16.2Z"/></svg>
